X: 32
T: Br\"annsvinspolska
O: Sk\aane
R: polkett, march
S: http://www.folksweden.com/files/Br_nnvinspolska.pdf
Z: 2021 John Chambers <jc:trillian.mit.edu>
M: 2/4
L: 1/16
K: A
|: "A"A2ce a2a2 | "E7"agbg e3c | "D"d2fd "A"c2ec | "E7"dBGB [1,3 "A"B2A2 :|2,4 "A"A4 :|
|: "A"Acec "E7"cBB2 | Bdfd "A"dcc2 | "A"Acec "E7"dEGB |[1,3 "A"A2ce gaga :|2,4 "A"A6 z2 :|
